ExpEYES17/UserManual/fr/rst/exp/schematics/acdc-separating.svg

<?xml version="1.0" encoding="UTF-8" standalone="no"?>
<svg
   xmlns:dc="http://purl.org/dc/elements/1.1/"
   xmlns:cc="http://creativecommons.org/ns#"
   xmlns:rdf="http://www.w3.org/1999/02/22-rdf-syntax-ns#"
   xmlns:svg="http://www.w3.org/2000/svg"
   xmlns="http://www.w3.org/2000/svg"
   xmlns:sodipodi="http://sodipodi.sourceforge.net/DTD/sodipodi-0.dtd"
   xmlns:inkscape="http://www.inkscape.org/namespaces/inkscape"
   version="1.1"
   id="acdc-separating"
   width="100%"
   height="100%"
   viewBox="-6 -6 470 374"
   sodipodi:docname="acdc-separating.svg"
   inkscape:version="0.92.2 (5c3e80d, 2017-08-06)"
   inkscape:export-filename="/home/georgesk/developpement/expeyes/expeyes/ExpEYES17/UserManual/fr/rst/exp/schematics/acdc-separating.png"
   inkscape:export-xdpi="61.276596"
   inkscape:export-ydpi="61.276596">
  <metadata
     id="metadata79">
    <rdf:RDF>
      <cc:Work
         rdf:about="">
        <dc:format>image/svg+xml</dc:format>
        <dc:type
           rdf:resource="http://purl.org/dc/dcmitype/StillImage" />
        <dc:title></dc:title>
      </cc:Work>
    </rdf:RDF>
  </metadata>
  <defs
     id="defs77" />
  <sodipodi:namedview
     pagecolor="#ffffff"
     bordercolor="#666666"
     borderopacity="1"
     objecttolerance="10"
     gridtolerance="10"
     guidetolerance="10"
     inkscape:pageopacity="0"
     inkscape:pageshadow="2"
     inkscape:window-width="1429"
     inkscape:window-height="852"
     id="namedview75"
     showgrid="false"
     inkscape:zoom="1.6021892"
     inkscape:cx="234.37585"
     inkscape:cy="187"
     inkscape:window-x="0"
     inkscape:window-y="0"
     inkscape:window-maximized="0"
     inkscape:current-layer="acdc-separating" />
  <desc
     id="desc2">
XCircuit Version 3.7
File &quot;acdc-separating.ps&quot; Page 1
</desc>
  <path
     style="fill:none;stroke:#000000;stroke-width:2;stroke-linecap:round;stroke-linejoin:bevel"
     inkscape:connector-curvature="0"
     id="path4"
     d="M 288,208 H 230" />
  <path
     style="fill:none;stroke:#000000;stroke-width:2;stroke-linecap:round;stroke-linejoin:bevel"
     inkscape:connector-curvature="0"
     id="path6"
     d="m 160,208 h 58" />
  <path
     style="fill:none;stroke:#000000;stroke-width:2;stroke-linecap:round;stroke-linejoin:bevel"
     inkscape:connector-curvature="0"
     id="path8"
     d="M 218,240 V 176" />
  <path
     style="fill:none;stroke:#000000;stroke-width:2;stroke-linecap:round;stroke-linejoin:bevel"
     inkscape:connector-curvature="0"
     id="path10"
     d="m 236,178 a 74,74 0 0 0 0,60" />
  <g
     style="fill:#000000;stroke:#000000"
     id="g16"
     transform="translate(32,80)">
    <text
       style="font-size:40px;font-family:Helvetica;stroke:none"
       id="text14"
       font-size="40">
      <tspan
         id="tspan12"
         y="0"
         x="0">SQ1</tspan>
    </text>
  </g>
  <path
     style="fill:none;stroke:#000000;stroke-width:2;stroke-linecap:round;stroke-linejoin:bevel"
     inkscape:connector-curvature="0"
     id="path18"
     d="m 16,32 v 64 h 96 V 32 Z" />
  <g
     style="fill:#000000;stroke:#000000"
     id="g24"
     transform="translate(368,80)">
    <text
       style="font-size:40px;font-family:Helvetica;stroke:none"
       id="text22"
       font-size="40">
      <tspan
         id="tspan20"
         y="0"
         x="0">A1</tspan>
    </text>
  </g>
  <path
     style="fill:none;stroke:#000000;stroke-width:2;stroke-linecap:round;stroke-linejoin:bevel"
     inkscape:connector-curvature="0"
     id="path26"
     d="m 352,32 v 64 h 80 V 32 Z" />
  <g
     style="fill:#000000;stroke:#000000"
     id="g32"
     transform="translate(368,224)">
    <text
       style="font-size:40px;font-family:Helvetica;stroke:none"
       id="text30"
       font-size="40">
      <tspan
         id="tspan28"
         y="0"
         x="0">A2</tspan>
    </text>
  </g>
  <path
     style="fill:none;stroke:#000000;stroke-width:2;stroke-linecap:round;stroke-linejoin:bevel"
     inkscape:connector-curvature="0"
     id="path34"
     d="m 352,176 v 64 h 80 v -64 z" />
  <text
     font-size="40"
     id="text38"
     style="font-size:40px;font-family:Helvetica;fill:#000000;stroke:none"
     x="192"
     y="160">
    <tspan
       x="192"
       y="160"
       id="tspan36">1 µF</tspan>
  </text>
  <path
     style="fill:none;stroke:#000000;stroke-width:2;stroke-linecap:round;stroke-linejoin:bevel"
     inkscape:connector-curvature="0"
     id="path42"
     d="m 112,64 c 48,48 144,-80 240,0" />
  <path
     style="fill:none;stroke:#000000;stroke-width:2;stroke-linecap:round;stroke-linejoin:bevel"
     inkscape:connector-curvature="0"
     id="path44"
     d="m 112,64 c 16,0 32,144 48,144" />
  <path
     style="fill:none;stroke:#000000;stroke-width:2;stroke-linecap:round;stroke-linejoin:bevel"
     inkscape:connector-curvature="0"
     id="path46"
     d="m 288,208 c 16,0 32,32 64,0" />
  <path
     style="fill:none;stroke:#000000;stroke-width:2;stroke-linecap:round;stroke-linejoin:bevel"
     inkscape:connector-curvature="0"
     id="path48"
     d="M 0,0 V 368 H 464 V 0 Z" />
  <path
     style="fill:none;stroke:#000000;stroke-width:2;stroke-linecap:round;stroke-linejoin:bevel"
     inkscape:connector-curvature="0"
     id="path50"
     d="M 272,304 H 244" />
  <path
     style="fill:none;stroke:#000000;stroke-width:2;stroke-linecap:round;stroke-linejoin:bevel"
     inkscape:connector-curvature="0"
     id="path52"
     d="m 144,304 h 28" />
  <path
     style="fill:none;stroke:#000000;stroke-width:2;stroke-linecap:round;stroke-linejoin:bevel"
     inkscape:connector-curvature="0"
     id="path54"
     d="m 172,304 6,14 12,-28 12,28 12,-28 12,28 12,-28 6,14" />
  <path
     style="fill:none;stroke:#000000;stroke-width:2;stroke-linecap:round;stroke-linejoin:bevel"
     inkscape:connector-curvature="0"
     id="path56"
     d="m 48,272 v 64 h 96 v -64 z" />
  <g
     style="fill:#000000;stroke:#000000"
     id="g62"
     transform="translate(48,320)">
    <text
       style="font-size:40px;font-family:Helvetica;stroke:none"
       id="text60"
       font-size="40">
      <tspan
         id="tspan58"
         y="0"
         x="0">GND</tspan>
    </text>
  </g>
  <path
     style="fill:none;stroke:#000000;stroke-width:2;stroke-linecap:round;stroke-linejoin:bevel"
     inkscape:connector-curvature="0"
     id="path64"
     d="m 272,304 c 16,0 32,-16 80,-96" />
  <g
     style="fill:#000000;stroke:#000000"
     id="g70"
     transform="translate(176,352)">
    <text
       style="font-size:40px;font-family:Helvetica;stroke:none"
       id="text68"
       font-size="40">
      <tspan
         id="tspan66"
         y="0"
         x="0">100 kΩ</tspan>
    </text>
  </g>
  <text
     xml:space="preserve"
     style="font-style:normal;font-variant:normal;font-weight:normal;font-stretch:normal;font-size:21.33333397px;line-height:23px;font-family:sans-serif;-inkscape-font-specification:'sans-serif, Normal';font-variant-ligatures:normal;font-variant-caps:normal;font-variant-numeric:normal;font-feature-settings:normal;text-align:center;letter-spacing:0px;word-spacing:0px;writing-mode:lr-tb;text-anchor:middle;fill:#000000;fill-opacity:1;stroke:none;stroke-width:1px;stroke-linecap:butt;stroke-linejoin:miter;stroke-opacity:1"
     x="211.82697"
     y="153.91791"
     id="text119"><tspan
       sodipodi:role="line"
       id="tspan117"
       x="215.22279"
       y="153.91791"> </tspan></text>
</svg>

<svg xmlns="http://www.w3.org/2000/svg"
   xmlns:xlink="http://www.w3.org/1999/xlink"
   version="1.1"
   id="acdc-separating" width="100%" height="100%"  viewBox="-6 -6 470 374">
<desc>
XCircuit Version 3.7
File "acdc-separating.ps" Page 1
</desc>
<g stroke="black">
<path d="M288,208 L230,208 " fill="none" stroke-width="2" stroke-linejoin="bevel" stroke-linecap="round" stroke="#000000" />
<path d="M160,208 L218,208 " fill="none" stroke-width="2" stroke-linejoin="bevel" stroke-linecap="round" stroke="#000000" />
<path d="M218,240 L218,176 " fill="none" stroke-width="2" stroke-linejoin="bevel" stroke-linecap="round" stroke="#000000" />
<path d="M236,178 A74,74 0 0,0 236,238 " fill="none" stroke-width="2" stroke-linejoin="bevel" stroke-linecap="round" stroke="#000000" />
<g transform="matrix(   1    0   -0    1  32  80)" fill="#000000" >
<text stroke="none" font-family="Helvetica" font-size="40" ><tspan x="0" y="0">SQ1</tspan>
</text></g>
<path d="M16,32 L16,96 112,96 112,32 z" fill="none" stroke-width="2" stroke-linejoin="bevel" stroke-linecap="round" stroke="#000000" />
<g transform="matrix(   1    0   -0    1 368  80)" fill="#000000" >
<text stroke="none" font-family="Helvetica" font-size="40" ><tspan x="0" y="0">A1</tspan>
</text></g>
<path d="M352,32 L352,96 432,96 432,32 z" fill="none" stroke-width="2" stroke-linejoin="bevel" stroke-linecap="round" stroke="#000000" />
<g transform="matrix(   1    0   -0    1 368 224)" fill="#000000" >
<text stroke="none" font-family="Helvetica" font-size="40" ><tspan x="0" y="0">A2</tspan>
</text></g>
<path d="M352,176 L352,240 432,240 432,176 z" fill="none" stroke-width="2" stroke-linejoin="bevel" stroke-linecap="round" stroke="#000000" />
<g transform="matrix(   1    0   -0    1 192 160)" fill="#000000" >
<text stroke="none" font-family="Helvetica" font-size="40" ><tspan x="0" y="0">1uF</tspan>
</text></g>
<path d="M112,64 C160,112 256,-16 352,64 " fill="none" stroke-width="2" stroke-linejoin="bevel" stroke-linecap="round" stroke="#000000" />
<path d="M112,64 C128,64 144,208 160,208 " fill="none" stroke-width="2" stroke-linejoin="bevel" stroke-linecap="round" stroke="#000000" />
<path d="M288,208 C304,208 320,240 352,208 " fill="none" stroke-width="2" stroke-linejoin="bevel" stroke-linecap="round" stroke="#000000" />
<path d="M0,0 L0,368 464,368 464,0 z" fill="none" stroke-width="2" stroke-linejoin="bevel" stroke-linecap="round" stroke="#000000" />
<path d="M272,304 L244,304 " fill="none" stroke-width="2" stroke-linejoin="bevel" stroke-linecap="round" stroke="#000000" />
<path d="M144,304 L172,304 " fill="none" stroke-width="2" stroke-linejoin="bevel" stroke-linecap="round" stroke="#000000" />
<path d="M172,304 L178,318 190,290 202,318 214,290 226,318 238,290 244,304 " fill="none" stroke-width="2" stroke-linejoin="bevel" stroke-linecap="round" stroke="#000000" />
<path d="M48,272 L48,336 144,336 144,272 z" fill="none" stroke-width="2" stroke-linejoin="bevel" stroke-linecap="round" stroke="#000000" />
<g transform="matrix(   1    0   -0    1  48 320)" fill="#000000" >
<text stroke="none" font-family="Helvetica" font-size="40" ><tspan x="0" y="0">GND</tspan>
</text></g>
<path d="M272,304 C288,304 304,288 352,208 " fill="none" stroke-width="2" stroke-linejoin="bevel" stroke-linecap="round" stroke="#000000" />
<g transform="matrix(   1    0   -0    1 176 352)" fill="#000000" >
<text stroke="none" font-family="Helvetica" font-size="40" ><tspan x="0" y="0">100K</tspan>
</text></g>
</g>
</svg>
